X: 133
T: Big John McNeil
C: Peter Milne (1824-1908)
N: Peter Milne was a friend and teacher of J.S.Skinner.
B: NEFR #133
B: Hunter 237, BSFC IX-2, John McNeil's Reel in SFT p.13, NEFR p.133
Z: 2012 John Chambers <jc:trillian.mit.edu>
M: C|
L: 1/8
K: A
|:"A"A,2 CE FE CE | AE CE FE CE | A,2 CE FE CE | "D"FA GF "E7"ED CB, |
| "A"A,2 CE FE CE | AE CE FE CB, | "A"A,C "E7"B,D "A"CE "D"DF | "E7"EG Bd "A"cA A2 :|
|:"A"eA "D"fA "A"eA cd | "A"eA "D"fA "A"e2 (3agf | "A"eA "D"fA "A"eA ce | "D"de dc "E7"B2 cd |
| "A"eA "D"fA "A"eA cd | "A"eA "D"fA "A"e2 fg | "D"ag fe "A"fe dc |1 "E7"de fg "A"a2 cd :|2 "E7"BA GF ED CB, :|


